X:132
%%musicspace -5
T:Dusty Windowsills
M:6/8
L:1/8
K:Ador
"Am"A2B cBA | eAB cBA | "G"FGG EGG | "G"DGG "Em"EGG | 
"Am"A2B cBA | "Em"e2d efg | "Am"age "G"dBG | "Em"BAG "Am"A3 :: 
"Am"a3 age | "G"def g2f | "Em"g3 gfe | "G"dBG GFG | 
"C"EGG "G"DGG | "C"EGG "G"ABc | "Em"Bed "G"BAG | BAG "Am"A3 :: 
"Am"ABA gAf | ABA edB | "G"GAG eGd | "G"GAG "Em"edB | 
"Am"ABA gAf | "Am"ABA "Em"efg | "Am"age "G"dBG | "Em"BAG "Am"A3 :|]

%%newpage

